!!!COM: Victor Masse/
!!!CNT: Francais
!!!TXO: Francais
!!!OTL: Toujours Toi, Toujours Moi!
!!!LYR: E/mile Barateau
!!!OPR: Premie\res Me/lodies
!!!ONM: No. 4
!!!ENC: Jacob Pegg
!!!YOR: Romantic French Song 1830-1870 -David Tunley, ed.,
!!!YOR: New York: Garland Publishing, Inc., 1995, Vol. 4
!!!ODT: 1868/
!!NB: Vocal melody and text only encoded.
!!NB: First instance of melodic material only encoded.
**kern	**silbe
*clef G2	*
*k[b-e-a-d-]	*
*M3/8	*
=20	=20
8r	.
8r	.
{8cc	{Front
=21	=21
8.cc	pur,
16g	bou-
16b-	-che
16a-	mi-
=22	=22
8e-	-gnon-
8e-	-ne,
16a-	Doux
16cc	re-
=23	=23
4ee-	-gard
16ddn	qui
16ff	ray-
=24	=24
8ee-	-on-
8ee-}	-ne,}
{16b-	{Main
16cc	pe-
=25	=25
4dd-	-tite,
16cc	et
16b-	qui
=26	=26
8f	don-
8f}	-ne,}
16r	.
{16g	{C'est
=27	=27
8.a-	toi,
16a-	c'est
16dd-	tou-
16cc	-jours
=28	=28
4b-}	toi!}
{8bn	{Crois~
=29	=29
8.cc	~moi,
16cc	la
(ee-q	plus
16dd-)	|
16cc	jo-
=30	=30
(8gg	-li-
8cc)}	-e,}
{16bn	{Par
16cc	la
=31	=31
4dd-	gra^ce
16cc	em-
16b-	-bel-
=32	=32
(8b-	-li-
8a-)}	-e,}
{16g	{Que
16a-	ja-
=33	=33
4b-	-mais
16a-	on
16f	n'ou-
=34	=34
(16e-	-bli-
16a-)	|
[8cc	-e,
16cc]}	|}
{16ff	{C'est
=35	=35
8.ee-;	toi!
16b-	c'est
16dd-	tou-
16cc	-jours
=36	=36
4a-}	toi!}
8r	.
!!rests
=41	=41
8r	.
8r	.
{8b-	{Trem-
=42	=42
8.b-	-bler
16cc	lors-
16ddn	-que
16ee-	tu
=43	=43
(8ddn	pas-
8cc)}	-ses,}
16r	.
{16cc	{N'o-
=44	=44
8.ddn	-ser
16cc	sui-
16b-	-vre
16a-	tes
=45	=45
(8a-	tra-
8g)	-ces,
16b-	S'e-
16b-	-ni-
=46	=46
(8.b-	-vrer
16cc)	|
16ddn	de
16ee-	tes
=47	=47
(8ddn	gra^-
8cc)}	-ces,}
16r	.
{16cc	{C'est
=48	=48
8.b-	moi,
16b-	c'est
(16b-q	tou-
16ddnq	|
16cc)	|
16b-	jours
=49	=49
[8ee-	moi!
16ee-]}	|}
16r	.
{8ee-	{Re^-
=50	=50
8.ee-	-ver
16ee-	en
16ddn	ta
16ee-	pre/-
=51	=51
(4gg-	-sen-
16ff-)	-ce,
16ff-	Pleu-
=52	=52
8.ee-	-rer,
16dd-	en
16ccn	ton
16dd-	ab-
=53	=53
4ff-}	-sence,}
{16ee-	{Et
16ee-	che/-
=54	=54
(8.ee-	-rir
16dd-)	|
16cc-	sa
16b-	souf-
=55	=55
(8dd-	-fran-
8cc-)}	-ce}
16r	.
{16cc-	{C'est
=56	=56
8.b-	moi!
16a-	c'est
16g	tou-
16a-	-jours
=57	=57
4ee-}	moi!}
{8ff-	{C'est
=58	=58
4ee-	moi,
8ff-	c'est
=59	=59
8ee-	moi,
8ee-	oui,
(16ee-q	tou-
16gg-q	|
16ff-)	|
16ee-	-jours
=60	=60
[4.ee-	moi!
=61	=61
4ee-_	|
16ee-]}	|}
16r	.
!!mm.61-77 melodically identical to mm. 20-36
!!mm. 78-82 rest
!!mm. 82-102 melodically identical to mm. 41-61
!!mm. 103-115 identical to mm. 20-32 (1/2A)
!!mm. 116-end are modified final phrase- 
=116	=116
4r	.
16r	.
{16cc	{C'est
=117	=117
4dd-	toi!
16cc	tou-
16dd-	-jours
=118	=118
4ee-	toi!
16ddn	Tout
16ee-	ce
=119	=119
4ff-	que
16ee-	l'on
16ff-	ad-
=120	=120
(8aa-;	-mi-
8ee-)}	-re,}
16r	.
{16cc	{C'est
=121	=121
8.b-	toi!
(16b-	c'est
16ccq	|
16b-q	|
8anq	|
8b-q)	|
16ff	tou-
16ee-;	-jours
=122	=122
4a-}	toi!}
8r	.
*-	*-
